svgs/thin/file-user.svg

<svg xmlns="http://www.w3.org/2000/svg" viewBox="0 0 384 512"><!-- Font Awesome Pro 6.0.0-alpha2 by @fontawesome - https://fontawesome.com License - https://fontawesome.com/license (Commercial License) --><path d="M374.629 150.625L233.371 9.375C227.371 3.371 219.23 0 210.746 0H64C28.652 0 0 28.652 0 64V448C0 483.344 28.652 512 64 512H320C355.348 512 384 483.344 384 448V173.254C384 164.766 380.629 156.629 374.629 150.625ZM224 22.629L361.375 160H248C234.781 160 224 149.234 224 136V22.629ZM368 448C368 474.469 346.469 496 320 496H64C37.531 496 16 474.469 16 448V64C16 37.531 37.531 16 64 16H208V136C208 158.062 225.938 176 248 176H368V448ZM160 352C115.82 352 80 387.816 80 432C80 440.836 87.164 448 96 448H288C296.836 448 304 440.836 304 432C304 387.816 268.184 352 224 352H160ZM288 432H96C96 396.711 124.711 368 160 368H224C259.289 368 288 396.711 288 432ZM192 192C156.656 192 128 220.656 128 256S156.656 320 192 320C227.348 320 256 291.344 256 256S227.348 192 192 192ZM192 304C165.531 304 144 282.469 144 256S165.531 208 192 208S240 229.531 240 256S218.469 304 192 304Z"/></svg>

<svg xmlns="http://www.w3.org/2000/svg" viewBox="0 0 384 512"><!--! Font Awesome Pro 6.0.0-alpha3 by @fontawesome - https://fontawesome.com License - https://fontawesome.com/license (Commercial License) --><path d="M374.6 150.6l-141.3-141.3C227.4 3.371 219.2 0 210.7 0H64C28.65 0 0 28.65 0 64l.0065 384c0 35.34 28.65 64 64 64H320c35.35 0 64-28.66 64-64V173.3C384 164.8 380.6 156.6 374.6 150.6zM224 22.63L361.4 160H248C234.8 160 224 149.2 224 136V22.63zM368 448c0 26.47-21.53 48-48 48H64c-26.47 0-48-21.53-48-48V64c0-26.47 21.53-48 48-48h144v120c0 22.06 17.94 40 40 40h120V448zM160 352c-44.18 0-80 35.82-80 80C80 440.8 87.16 448 96 448h192c8.836 0 16-7.164 16-16c0-44.18-35.82-80-80-80H160zM288 432H96c0-35.29 28.71-64 64-64h64C259.3 368 288 396.7 288 432zM192 192C156.7 192 128 220.7 128 256s28.66 64 64 64c35.35 0 64-28.66 64-64S227.3 192 192 192zM192 304C165.5 304 144 282.5 144 256S165.5 208 192 208s48 21.53 48 48S218.5 304 192 304z"/></svg>
